X:1
T:He Leadeth Me
T:Text: Joseph H. Gilmore, 1862 Tune: William B. Bradbury, 1864
T:LM with refrain AUGHTON www.hymnary.org/text/he_leadeth_me_o_blessed_thought
T:He Leadeth Me
T:This hymn is in the public domain. You may freely use this score for personal and congregational worship. If you reproduce the score, please credit Hymnary.org as the source. 
T:This hymn is in the public domain. You may freely use this score for personal and congregational worship. If you reproduce the score, please credit Hymnary.org as the source. 
T:This hymn is in the public domain. You may freely use this score for personal and congregational worship. If you reproduce the score, please credit Hymnary.org as the source. 
Z:This hymn is in the public domain. You may freely use this score for personal and congregational worship. If you reproduce the score, please credit Hymnary.org as the source.
%%score ( 1 2 ) ( 3 4 )
L:1/8
M:4/4
K:D
V:1 treble nm="SOPRANO ALTO" snm="S. A."
V:2 treble 
V:3 bass nm="TENOR BASS" snm="T. B."
V:4 bass 
V:1
"^D""^1""^2""^3""^4" A2 | F3 E D2 A2 |"^G" B2 G2 G2 B2 |"^D" A3 F F2 ED |"^D/A" F2 F2"^A" E2 A2 | %5
w: He|lead- eth me: O|bless- ed thought! O|words with heav- enly *|com- fort fraught! What-|
w: Some-|times mid scenes of|deep- est gloom, some-|times where E- den's *|flow- ers bloom, by|
w: Lord,|I would clasp thy|hand in mine, nor|ev- er mur- mur *|nor re- pine; con-|
w: And|when my task on|earth is done, when,|by thy grace, the *|vic- tory's won, e'en|
"^D" F3 E D2 A2 |1"^G" B2 G2 d2 cB |"^D" A2 F2"^Bm" FE DE |"^A7" F3 E"^D" D2 || %9
w: e'er I do, wher-|e're I be, still *|'tis God's hand * that *|lead- eth me.|
w: wa- ters calm, o'er|trou- bled sea, still *|'tis God's hand * that *|lead- eth me.|
w: tent, what- ev- er|lot I see, since *|'tis my God * that *|lead- eth me.|
w: death's cold wave I|will not flee, since *|God through Jor- * dan *|lead- eth me.|
"^Page 2""^Refrain" A2 | A2 d2"^A" c2 e2 |"^D" d2"^G" cB"^D" A2 B2 | A2 F2"^Bm" FE DE | %13
w: He|lead- eth me, he|lead- eth * me; by|his own hand _ he *|
w: ||||
w: ||||
w: ||||
"^D/A""^He Leadeth Me" F2 F2"^A" E2 | A2 |"^D" A2 d2"^A" c2 e2 |"^D" d2"^G" cB"^D" A2 B2 | %17
w: lead- eth me:|his|faith- ful fol- lower|I would _ be, for|
w: ||||
w: ||||
w: ||||
 A2 F2"^Bm" FE DE |"^A7" F3 E"^D" D2 x2 |] %19
w: by his hand _ he *|lead- eth me.|
w: ||
w: ||
w: ||
V:2
 D2 | D3 A, A,2 D2 | D2 D2 D2 G2 | F3 D D2 D2 | D2 D2 C2 C2 | D3 A, A,2 D2 |1 D2 G2 G2 G2 | %7
 F2 D2 DC B,C | D3 C D2 || F2 | F2 D2 E2 A2 | A2 G2 F2 G2 | F2 D2 DC B,C | D2 D2 C2 | E2 | %15
 F2 D2 E2 A2 | A2 G2 F2 G2 | F2 D2 DC B,C | D3 C D2 x2 |] %19
V:3
 F,2 | A,3 G, F,2 F,2 | G,2 B,2 B,2 D2 | D3 A, A,2 G,F, | A,2 A,2 A,2 A,2 | A,3 G, F,2 F,2 |1 %6
 G,2 B,2 B,2 D2 | D2 A,2 B,2 F,2 | A,3 G, F,2 || A,2 | D2 A,2 A,2 C2 | D2 D2 D2 D2 | %12
 D2 A,2 B,2 F,2 | A,2 A,2 A,2 | C2 | D2 A,2 A,2 C2 | D2 D2 D2 D2 | D2 A,2 B,2 F,2 | %18
 A,3 G, F,2 x2 |] %19
V:4
 D,2 | D,3 D, D,2 D,2 | G,2 G,2 G,2 G,2 | D,3 D, D,2 D,2 | A,,2 A,,2 A,,2 A,,2 | D,3 D, D,2 D,2 |1 %6
 G,2 G,2 G,2 G,2 | D,2 D,2 B,,2 B,,2 | A,,3 A,, D,2 || D,2 | D,2 F,2 A,2 G,2 | F,2 G,2 F,2 G,2 | %12
 D,2 D,2 B,,2 B,,2 | A,,2 A,,2 A,,2 | A,,2 | D,2 F,2 A,2 G,2 | F,2 G,2 D,2 D,2 | %17
 D,2 D,2 B,,2 B,,2 | A,,3 A,, D,2 x2 |] %19

